build/assets/images/svg/food/5-izdelie_iz_testa.svg

<svg width="28" height="28" viewBox="0 0 28 28" fill="none" xmlns="http://www.w3.org/2000/svg">
<path d="M25.8603 16.7732C25.8174 16.7103 24.7655 15.2275 21.3881 14.1701C20.1269 13.7758 18.828 13.5137 17.5126 13.3881C20.8415 9.60818 21.7811 6.25958 16.9787 5.08908C13.6668 4.38595 7.48753 7.9719 4.80217 11.3837C2.61645 13.8133 0.414253 17.9829 1.14172 20.3366C1.26243 20.93 1.56463 21.4713 2.0065 21.8854C2.44836 22.2995 3.00803 22.566 3.60803 22.648C4.37156 22.7346 5.14467 22.6705 5.88348 22.4592C7.4854 23.3146 9.68246 23.7495 12.4481 23.7495C13.557 23.7728 14.9038 23.6074 16.0384 23.6239C19.8943 23.7796 30.4624 23.0165 25.8603 16.7732ZM20.8993 14.9939C21.3613 16.2114 21.6158 17.4977 21.6521 18.7994C21.6605 18.974 21.6234 19.1477 21.5444 19.3037C21.337 19.7403 21.0227 19.8572 20.5789 19.5114C20.5024 19.4464 20.4445 19.3624 20.4109 19.2679C20.3774 19.1734 20.3694 19.0716 20.3879 18.973C20.5128 17.883 20.1177 16.4993 19.765 15.5327C19.6533 15.2227 19.5223 14.9128 19.3759 14.6051C19.8899 14.7091 20.3984 14.8389 20.8993 14.9939ZM15.5811 15.3612C15.9551 16.387 16.1973 17.4562 16.3019 18.543C16.3248 18.728 16.2942 18.9157 16.2136 19.0838C16.1331 19.2518 16.006 19.3933 15.8475 19.4913C15.7476 19.5094 15.6449 19.5049 15.547 19.4782C15.449 19.4516 15.3583 19.4034 15.2813 19.3372C15.2044 19.2709 15.1432 19.1884 15.1022 19.0955C15.0612 19.0027 15.0415 18.9018 15.0444 18.8004C15.0495 17.9385 14.887 17.084 14.5659 16.2842C14.9149 15.9792 15.2533 15.6715 15.5811 15.3612ZM11.5071 7.26817C11.6967 7.17507 11.877 7.09255 12.0587 7.01039C13.2107 7.6225 14.2515 8.42399 15.1377 9.38133C15.2587 9.50729 15.3449 9.66247 15.388 9.8317C15.5187 10.2965 15.3588 10.5927 14.7973 10.6229C14.6971 10.6237 14.5985 10.5983 14.5112 10.5493C14.4238 10.5002 14.3508 10.4292 14.2994 10.3432C13.6766 9.43928 12.4689 8.65712 11.5677 8.1608C10.6512 7.66678 10.419 7.80592 11.5071 7.26817ZM7.11088 10.323C8.69484 10.6903 10.4306 12.2306 10.9417 12.7116C11.0796 12.8354 11.1792 12.996 11.2285 13.1746C11.2779 13.3532 11.275 13.5422 11.2201 13.7192C11.1566 13.7986 11.0761 13.8628 10.9847 13.9072C10.8932 13.9515 10.793 13.975 10.6913 13.9757C10.5896 13.9765 10.489 13.9546 10.3969 13.9116C10.3048 13.8686 10.2234 13.8056 10.1587 13.7271C9.44117 12.9176 8.55865 12.2711 7.57046 11.831C6.10677 11.1088 5.60292 11.7583 7.11088 10.323ZM3.79955 14.299C4.89383 14.9015 5.88427 15.6758 6.73307 16.5923C6.85588 16.7207 6.94445 16.8779 6.99063 17.0495C7.05454 17.2371 7.04351 17.4422 6.95984 17.6219C6.89077 17.6969 6.80597 17.7556 6.71151 17.794C6.61706 17.8323 6.51529 17.8493 6.4135 17.8437C6.31171 17.8381 6.21243 17.8101 6.12275 17.7616C6.03307 17.7131 5.95523 17.6454 5.8948 17.5633C5.29718 16.6892 4.14682 15.9223 3.15766 15.3784C3.34912 15.0266 3.56309 14.6668 3.79955 14.299ZM3.72799 21.7287C1.25466 21.1674 1.78173 18.3476 2.74079 16.2085C3.54312 16.6527 4.6219 17.3437 5.13254 18.0906C5.28186 18.3164 5.4891 18.4979 5.7326 18.6162C5.97611 18.7345 6.24691 18.7852 6.51671 18.763C6.74975 18.7672 6.98033 18.7147 7.18854 18.6099C7.39675 18.5052 7.57633 18.3513 7.71178 18.1616C7.84723 17.972 7.93449 17.7522 7.96602 17.5212C7.99754 17.2903 7.97239 17.0551 7.89273 16.8361C7.80893 16.5077 7.64288 16.206 7.41022 15.9596C6.51079 14.9915 5.46737 14.1679 4.3168 13.518C4.62748 13.0673 4.96958 12.6328 5.32884 12.1962C6.77061 12.1799 8.7679 13.4556 9.42854 14.2986C10.4675 15.645 12.7575 14.5473 12.1027 12.8807C12.0051 12.5584 11.8242 12.2676 11.5781 12.0377C10.5234 11.012 9.28964 10.1882 7.938 9.60716C8.49113 9.14821 9.07013 8.72137 9.67215 8.32874C11.0302 8.77398 12.9672 9.99642 13.5326 10.8637C14.0749 11.8008 15.5842 11.7039 16.1136 10.9381C16.5495 10.3751 16.3565 9.27485 15.8099 8.74288C15.0244 7.90502 14.1362 7.16967 13.1665 6.55427C15.4946 5.71069 16.7395 5.98519 16.7645 5.99082C18.1908 6.30382 19.0354 6.85966 19.2748 7.64296C20.0682 9.63712 15.842 14.1103 13.4809 15.998C10.752 18.5089 7.57443 21.9992 3.72799 21.7287ZM25.8743 20.2884C24.8549 22.4955 18.5635 22.7524 14.6189 22.7397C11.52 22.9657 8.97568 22.7105 7.1546 22.0145C9.28483 21.1029 11.3931 19.3417 13.0845 17.6287C13.2861 17.4297 13.5384 17.1845 13.8131 16.9387C14.0204 17.5182 14.124 18.1298 14.1193 18.7453C14.0958 19.0093 14.1436 19.2747 14.2579 19.5137C14.3722 19.7528 14.5487 19.9567 14.7688 20.1042C14.9501 20.2544 15.1653 20.358 15.3958 20.406C15.6262 20.4541 15.865 20.4451 16.0911 20.3798C16.3173 20.3145 16.5241 20.1949 16.6936 20.0315C16.863 19.868 16.9899 19.6656 17.0632 19.4419C17.2013 19.1334 17.257 18.7944 17.2248 18.4579C17.1044 17.1558 16.7915 15.8788 16.2962 14.6686C16.4314 14.534 16.5672 14.398 16.7047 14.2558C17.2198 14.2872 17.7282 14.3393 18.2255 14.4107C18.9551 15.6374 19.6129 17.8369 19.4677 18.8608C19.4278 19.1241 19.4596 19.3933 19.5597 19.6401C19.6598 19.8869 19.8246 20.1022 20.0367 20.2633C20.2091 20.4243 20.4184 20.5405 20.6462 20.6019C20.874 20.6633 21.1134 20.6679 21.3434 20.6153C21.5734 20.5627 21.787 20.4546 21.9655 20.3003C22.144 20.1461 22.2819 19.9504 22.3673 19.7305C22.5207 19.431 22.5933 19.0967 22.5782 18.7605C22.5394 17.6145 22.356 16.478 22.0324 15.3779C24.3364 16.2715 25.0917 17.2916 25.1062 17.3118C26.0065 18.5269 26.265 19.5284 25.8743 20.2884Z" fill="#203686"/>
</svg>

<svg width="28" height="28" fill="none" xmlns="http://www.w3.org/2000/svg"><path d="M25.86 16.773c-.043-.063-1.095-1.546-4.472-2.603a19.06 19.06 0 00-3.875-.782c3.328-3.78 4.268-7.128-.534-8.299-3.312-.703-9.491 2.883-12.177 6.295-2.186 2.43-4.388 6.599-3.66 8.953a2.92 2.92 0 002.466 2.311 5.87 5.87 0 002.275-.189c1.602.856 3.8 1.29 6.565 1.29 1.109.024 2.456-.142 3.59-.125 3.856.156 14.424-.607 9.822-6.85zm-4.96-1.78a11.64 11.64 0 01.752 3.806c.008.175-.029.349-.108.505-.207.436-.521.553-.965.207a.57.57 0 01-.191-.538c.125-1.09-.27-2.474-.623-3.44a10.26 10.26 0 00-.39-.928c.515.104 1.023.234 1.524.389zm-5.319.368c.374 1.026.616 2.095.72 3.182a.974.974 0 01-.453.948.68.68 0 01-.804-.69 6.648 6.648 0 00-.478-2.517c.349-.305.687-.612 1.015-.923zm-4.074-8.093c.19-.093.37-.175.552-.258a11.635 11.635 0 013.079 2.371c.12.126.207.281.25.45.13.466-.03.762-.59.792a.575.575 0 01-.499-.28c-.622-.904-1.83-1.686-2.731-2.182-.917-.494-1.149-.355-.06-.893zm-4.396 3.055c1.584.367 3.32 1.908 3.83 2.389a.969.969 0 01.28 1.007.684.684 0 01-1.062.008 7.579 7.579 0 00-2.589-1.896c-1.463-.722-1.967-.073-.46-1.508zM3.8 14.299a11.67 11.67 0 012.933 2.293c.123.129.211.286.258.457a.769.769 0 01-.031.573.691.691 0 01-1.065-.059c-.598-.874-1.748-1.64-2.737-2.185.191-.351.405-.711.642-1.079zm-.072 7.43c-2.473-.562-1.946-3.381-.987-5.52.802.444 1.88 1.135 2.392 1.882a1.51 1.51 0 001.384.672 1.437 1.437 0 001.376-1.927 1.995 1.995 0 00-.483-.876 12.847 12.847 0 00-3.093-2.442c.31-.45.653-.885 1.012-1.322 1.442-.016 3.439 1.26 4.1 2.103 1.038 1.346 3.329.248 2.674-1.418a1.912 1.912 0 00-.525-.843 12.043 12.043 0 00-3.64-2.43 18.794 18.794 0 011.734-1.28c1.358.446 3.295 1.668 3.86 2.536.543.937 2.052.84 2.582.074.435-.563.242-1.663-.304-2.195a13.647 13.647 0 00-2.644-2.189c2.329-.843 3.573-.569 3.599-.563 1.426.313 2.27.869 2.51 1.652.793 1.994-3.433 6.467-5.794 8.355-2.729 2.51-5.907 6.001-9.753 5.73zm22.146-1.44c-1.02 2.206-7.31 2.463-11.255 2.45-3.099.227-5.643-.029-7.464-.724 2.13-.912 4.238-2.673 5.93-4.386.201-.2.453-.445.728-.69.207.58.311 1.19.306 1.806a1.477 1.477 0 00.65 1.36 1.444 1.444 0 002.294-.663c.138-.309.194-.648.162-.984a13.217 13.217 0 00-.929-3.79c.135-.134.271-.27.409-.412.515.031 1.023.083 1.52.155.73 1.226 1.388 3.426 1.243 4.45a1.482 1.482 0 00.569 1.402 1.443 1.443 0 002.33-.533c.154-.299.226-.633.211-.97a13.62 13.62 0 00-.546-3.382c2.304.893 3.06 1.914 3.074 1.934.9 1.215 1.159 2.216.768 2.976z" fill="#203686"/></svg>
